assets/icons/iphone-11.svg

<svg xmlns="http://www.w3.org/2000/svg" viewBox="0 0 22 44"><path d="M18.8 0H3.2A3.2 3.2 0 000 3.2v37.6C0 42.6 1.4 44 3.2 44h15.6c1.8 0 3.2-1.4 3.2-3.2V3.2C22 1.5 20.6 0 18.8 0zm-5.7 1.2c.2 0 .3.1.3.3s-.1.3-.3.3-.3-.1-.3-.3c0-.2.1-.3.3-.3zm-3.1 0h2l.2.2-.2.4h-2l-.2-.2.2-.4zm11 39.6c0 1.2-1 2.2-2.2 2.2H3.2C2 43 1 42 1 40.8V3.2C1 2 2 1 3.2 1h2.3c.3 0 .5.2.5.5V2c0 .6.4 1 1 1h8c.6 0 1-.4 1-1v-.5c0-.3.2-.5.5-.5h2.3C20 1 21 2 21 3.2v37.6z"/><path d="M14.7 42.2H7.3l-.1.1.1.1h7.5l.1-.1-.2-.1z" fill="#fff"/></svg>

<?xml version="1.0" encoding="utf-8"?>
<!-- Generator: Adobe Illustrator 25.1.0, SVG Export Plug-In . SVG Version: 6.00 Build 0)  -->
<svg version="1.1" id="Layer_1" xmlns="http://www.w3.org/2000/svg" xmlns:xlink="http://www.w3.org/1999/xlink" x="0px" y="0px"
	 viewBox="0 0 22 44" style="enable-background:new 0 0 22 44;" xml:space="preserve">
<style type="text/css">
	<!-- .st0{fill:#EA110C;} -->
	.st0{fill:#000;}
	.st1{fill:#FFFFFD;}
</style>
<path class="st0" d="M18.8,0H3.2C1.4,0,0,1.4,0,3.2c0,0,0,0,0,0v37.6C0,42.6,1.4,44,3.2,44h15.6c1.8,0,3.2-1.4,3.2-3.2V3.2
	C22,1.5,20.6,0,18.8,0C18.8,0,18.8,0,18.8,0z M13.1,1.2c0.2,0,0.3,0.1,0.3,0.3s-0.1,0.3-0.3,0.3s-0.3-0.1-0.3-0.3l0,0
	C12.8,1.3,12.9,1.2,13.1,1.2z M10,1.2h2c0.1,0,0.2,0.1,0.2,0.2S12.1,1.8,12,1.8h-2c-0.1,0-0.2-0.1-0.2-0.2S9.9,1.2,10,1.2z M21,40.8
	c0,1.2-1,2.2-2.2,2.2H3.2C2,43,1,42,1,40.8V3.2C1,2,2,1,3.2,1c0,0,0,0,0,0h2.3C5.8,1,6,1.2,6,1.5V2c0,0.6,0.4,1,1,1h8
	c0.6,0,1-0.4,1-1V1.5C16,1.2,16.2,1,16.5,1h2.3C20,1,21,2,21,3.2c0,0,0,0,0,0V40.8z"/>
<path class="st1" d="M14.7,42.2H7.3c-0.1,0-0.1,0.1-0.1,0.1v0c0,0.1,0.1,0.1,0.1,0.1h7.5c0.1,0,0.1-0.1,0.1-0.1v0
	C14.9,42.2,14.8,42.2,14.7,42.2z"/>
</svg>
